!!!COM: Bach, Johann Sebastian
!!!OPR: Joh. Seb. Bachs vierstimmige Choralgesänge
!!!XEN: Four-part Chorales
!!!OTL: 57. Es wird schier der letzte Tag herkommen
!!!SCT: BWV 310
!!!SCA: Thematisch-systematisches Verzeichnis der musikalischen Werke Johann Sebastian Bach: Bach-Werke-Verzeichnis (Schmieder)
!!!YOR: Bach Gesellschaft Edition xxxix
!!!ENC: Steven Rasmussen
!!!CDT: 1685/3//-1750/7/28/
!!!OCY: Deutschland
!!!YEC: Copyright (c) 1994, 2000 Center for Computer Assisted Research in the Humanities
!!!YEM: Rights to all derivative editions reserved
!!!YEN: United States of America
**kern	**kern	**kern	**kern	**silbe
*I:[BASSO]	*I:[TENORE]	*I:[ALTO]	*I:[SOPRANO]	*I:[SOPRANO]
*clefF4	*clefGv2	*clefG2	*clefG2	*
*k[f#]	*k[f#]	*k[f#]	*k[f#]	*
*e:	*e:	*e:	*e:	*
*M4/4	*M4/4	*M4/4	*M4/4	*
=1-	=1-	=1-	=1-	=1-
4.E	4G	4B	4e	Es
.	8GL	4B	4e	wird
8F#	8AJ	.	.	.
4G	4B	8eL	4b	schier
.	.	8f#J	.	.
4E	4e	4g	8bL	der
.	.	.	8ccJ	.
=2	=2	=2	=2	=2
8F#L	4d	8aL	4dd	letz-
8DJ	.	8f#J	.	.
4G	4d	8gL	4b	-te
.	.	8f#J	.	.
8cL	4.c	4e	4g	Tag
8BJ	.	.	.	.
8AL	.	8f#L	8aL	her-
8GJ	8d	8gJ	8bJ	.
=3	=3	=3	=3	=3
4A	8cL	8gL	2cc	-kom-
.	16dL	16f#L	.	.
.	16eJJ	16eJJ	.	.
4D	4d	4f#	.	.
2G;	2d;	2g;	2b;	-men,
=4	=4	=4	=4	=4
4C#	4e	4g	4a	denn
4D	8.dL	8gL	4a	die
.	.	8f#J	.	.
.	16cJk	.	.	.
4E	4B	8f#L	4g	Bos-
.	.	8eJ	.	.
4F#	4d	8dL	4a	-heit
.	.	8aJ	.	.
=5	=5	=5	=5	=5
4G	4d	8aL	4b	hat
.	.	8gJ	.	.
4D	4d	8gL	4a	sehr
.	.	8f#J	.	.
4E	8dL	4e	4g	zu-
.	8c#J	.	.	.
4F#	8dL	8AL	4f#	-ge-
.	8AJ	8dJ	.	.
=6	=6	=6	=6	=6
8GL	8BL	8dL	2e	-nom-
8E	8G	16c#L	.	.
.	.	16BJJ	.	.
8A	8E	4c#	.	.
8AAJ	16AL	.	.	.
.	16GJJ	.	.	.
2D;	2F#;	2A;	2d;	-men;
=7	=7	=7	=7	=7
4.E	4B	4e	4g	was
.	4B	4f#	4f#	Chri-
8D#	.	.	.	.
4E	4B	4e	8gL	-stus
.	.	.	8aJ	.
4GG	4B	4e	4b	hat
=8	=8	=8	=8	=8
4AA	4c	4e	8aL	vor
.	.	.	8gJ	.
4BB	8cL	4d#	4f#	ge-
.	16BL	.	.	.
.	16AJJ	.	.	.
2C;	2G;	2e;	2e;	-sagt,
=9	=9	=9	=9	=9
8BBL	4.B	4d#	4f#	das
8AAJ	.	.	.	.
8GGL	.	8eL	8eL	wird
8FF#J	8A	8d#J	8f#J	.
4EE	4B	4.e	4g	jetzt
4BB	8.BL	.	4f#	be-
.	.	8d#	.	.
.	16AJk	.	.	.
=10	=10	=10	=10	=10
1E;	1G#;	1B;	1e;	-klagt.
==|!	==|!	==|!	==|!	==|!
*-	*-	*-	*-	*-
!!!RWG: Key is interpreted using the Humdrum key tool.
!!!URL-pdf: https://s9.imslp.org/files/imglnks/usimg/6/6b/IMSLP24489-PMLP09471-CCARH_Bach_Chorales.pdf#page=39 Musedata edition
!!!URL-pdf: https://s9.imslp.org/files/imglnks/usimg/7/7a/IMSLP04155-Bach_-_BGA_253-438.pdf#page=31 	Bach-Gesellschaft Ausgabe, Band 39 (pp.175-276) Leipzig: Breitkopf und Härtel, 1892. Plate B.W. XXXIX.
!!!END: 1994/05/25
!!!EMD: Converted from MuseData to Humdrum Dec 19, 2000, by Andreas Kornstaedt using muse2kern.
!!!EED: Craig Stuart Sapp
!!!EEV: 2024/03/31
!!!ONB: Some non-unicode characters
!!!filter-keyboard: satb2gs
